packages/ffe-icons/icons/open/400/sm/move_selection_down.svg

<svg xmlns="http://www.w3.org/2000/svg" height="20" viewBox="0 -960 960 960" width="20"><path d="M312-96q-29.7 0-50.85-21.15Q240-138.3 240-168v-336q0-29.7 21.15-50.85Q282.3-576 312-576h336q29.7 0 50.85 21.15Q720-533.7 720-504v336q0 29.7-21.15 50.85Q677.7-96 648-96H312Zm336-408H312v336h336v-336Zm36.21-144q-15.21 0-25.71-10.29t-10.5-25.5q0-15.21 10.29-25.71t25.5-10.5q15.21 0 25.71 10.29t10.5 25.5q0 15.21-10.29 25.71t-25.5 10.5Zm0-144q-15.21 0-25.71-10.29t-10.5-25.5q0-15.21 10.29-25.71t25.5-10.5q15.21 0 25.71 10.29t10.5 25.5q0 15.21-10.29 25.71t-25.5 10.5Zm-204 0q-15.21 0-25.71-10.29t-10.5-25.5q0-15.21 10.29-25.71t25.5-10.5q15.21 0 25.71 10.29t10.5 25.5q0 15.21-10.29 25.71t-25.5 10.5Zm-204 0q-15.21 0-25.71-10.29t-10.5-25.5q0-15.21 10.29-25.71t25.5-10.5q15.21 0 25.71 10.29t10.5 25.5q0 15.21-10.29 25.71t-25.5 10.5Zm0 144q-15.21 0-25.71-10.29t-10.5-25.5q0-15.21 10.29-25.71t25.5-10.5q15.21 0 25.71 10.29t10.5 25.5q0 15.21-10.29 25.71t-25.5 10.5ZM480-336Z"/></svg>

<svg xmlns="http://www.w3.org/2000/svg" height="20" viewBox="0 -960 960 960" width="20"><path d="M312-96q-29.7 0-50.85-21.15Q240-138.3 240-168v-336q0-29.7 21.15-50.85Q282.3-576 312-576h336q29.7 0 50.85 21.15Q720-533.7 720-504v336q0 29.7-21.15 50.85Q677.7-96 648-96H312Zm336-408H312v336h336v-336Zm36.211-144Q669-648 658.5-658.289q-10.5-10.29-10.5-25.5Q648-699 658.289-709.5q10.29-10.5 25.5-10.5Q699-720 709.5-709.711q10.5 10.29 10.5 25.5Q720-669 709.711-658.5q-10.29 10.5-25.5 10.5Zm0-144Q669-792 658.5-802.289q-10.5-10.29-10.5-25.5Q648-843 658.289-853.5q10.29-10.5 25.5-10.5Q699-864 709.5-853.711q10.5 10.29 10.5 25.5Q720-813 709.711-802.5q-10.29 10.5-25.5 10.5Zm-204 0Q465-792 454.5-802.289q-10.5-10.29-10.5-25.5Q444-843 454.289-853.5q10.29-10.5 25.5-10.5Q495-864 505.5-853.711q10.5 10.29 10.5 25.5Q516-813 505.711-802.5q-10.29 10.5-25.5 10.5Zm-204 0Q261-792 250.5-802.289q-10.5-10.29-10.5-25.5Q240-843 250.289-853.5q10.29-10.5 25.5-10.5Q291-864 301.5-853.711q10.5 10.29 10.5 25.5Q312-813 301.711-802.5q-10.29 10.5-25.5 10.5Zm0 144Q261-648 250.5-658.289q-10.5-10.29-10.5-25.5Q240-699 250.289-709.5q10.29-10.5 25.5-10.5Q291-720 301.5-709.711q10.5 10.29 10.5 25.5Q312-669 301.711-658.5q-10.29 10.5-25.5 10.5ZM480-336Z"/></svg>
